; generated by Slic3r 1.2.9 on 2018-10-18 at 12:05:18

; external perimeters extrusion width = 0.20mm
; perimeters extrusion width = 0.34mm
; infill extrusion width = 0.64mm
; solid infill extrusion width = 0.34mm
; top infill extrusion width = 0.34mm

M107
M190 S60 ; set bed temperature
M104 S190 ; set temperature
G28 ; home all axes
M109 S190 ; wait for temperature to be reached
G21 ; set units to millimeters
G90 ; use absolute coordinates
M82 ; use absolute distances for extrusion
G92 E0
G1 Z0.050 F60.000
G1 X92.637 Y93.086 F60.000
G1 X93.562 Y92.218 E0.00499 F60.000
G1 X94.588 Y91.472 E0.00998
G1 X95.700 Y90.861 E0.01497
G1 X96.879 Y90.394 E0.01996
G1 X98.107 Y90.079 E0.02495
G1 X99.366 Y89.920 E0.02994
G1 X100.634 Y89.920 E0.03493 F60.000
G1 X101.893 Y90.079 E0.03992
G1 X103.121 Y90.394 E0.04491
G1 X104.300 Y90.861 E0.04990
G1 X105.412 Y91.472 E0.05489
G1 X106.438 Y92.218 E0.05989
G1 X107.365 Y93.088 E0.06489
G1 X108.171 Y94.063 E0.06987
G1 X108.851 Y95.134 E0.07486
G1 X109.391 Y96.282 E0.07985
G1 X109.783 Y97.488 E0.08484
G1 X110.021 Y98.734 E0.08983
G1 X110.100 Y100.000 E0.09482
G1 X110.021 Y101.266 E0.09981
G1 X109.783 Y102.512 E0.10480
G1 X109.391 Y103.718 E0.10979
G1 X108.851 Y104.866 E0.11478
G1 X108.171 Y105.937 E0.11977
G1 X107.363 Y106.914 E0.12476
G1 X106.438 Y107.782 E0.12975
G1 X105.412 Y108.528 E0.13474
G1 X104.300 Y109.139 E0.13973
G1 X103.121 Y109.606 E0.14472
G1 X101.893 Y109.921 E0.14971
G1 X100.634 Y110.080 E0.15470
G1 X99.366 Y110.080 E0.15969
G1 X98.107 Y109.921 E0.16468
G1 X96.879 Y109.606 E0.16967
G1 X95.700 Y109.139 E0.17467
G1 X94.588 Y108.528 E0.17966
G1 X93.562 Y107.782 E0.18465
G1 X92.637 Y106.914 E0.18964
G1 X91.829 Y105.937 E0.19463
G1 X91.149 Y104.866 E0.19962
G1 X90.609 Y103.718 E0.20461
G1 X90.217 Y102.512 E0.20960
G1 X89.979 Y101.266 E0.21459
G1 X89.900 Y100.000 E0.21958
G1 X89.979 Y98.734 E0.22457
G1 X90.217 Y97.488 E0.22956
G1 X90.609 Y96.282 E0.23455
G1 X91.151 Y95.132 E0.23955
G1 X91.829 Y94.063 E0.24453
G1 X92.618 Y93.109 E0.24940
G92 E0
G1 X85.940 Y85.959 F60.000
G1 X87.315 Y84.667 E0.00742 F60.000
G1 X89.337 Y83.198 E0.01726
G1 X91.527 Y81.994 E0.02709
G1 X93.851 Y81.074 E0.03692
G1 X96.271 Y80.453 E0.04675
G1 X98.750 Y80.139 E0.05659
G1 X101.256 Y80.140 E0.06644
G1 X103.729 Y80.453 E0.07625 F60.000
G1 X106.149 Y81.074 E0.08608
G1 X108.473 Y81.994 E0.09591
G1 X110.668 Y83.202 E0.10577
G1 X112.685 Y84.667 E0.11558
G1 X114.506 Y86.378 E0.12541
G1 X116.099 Y88.303 E0.13524
G1 X117.435 Y90.408 E0.14505
G1 X118.502 Y92.674 E0.15491
G1 X119.275 Y95.051 E0.16474
G1 X119.743 Y97.506 E0.17457
G1 X119.900 Y100.000 E0.18441
G1 X119.743 Y102.488 E0.19421
G1 X119.275 Y104.949 E0.20407
G1 X118.502 Y107.326 E0.21390
G1 X117.438 Y109.587 E0.22373
G1 X116.099 Y111.697 E0.23357
G1 X114.506 Y113.622 E0.24340
G1 X112.685 Y115.333 E0.25323
G1 X110.663 Y116.802 E0.26306
G1 X108.473 Y118.006 E0.27290
G1 X106.149 Y118.926 E0.28273
G1 X103.729 Y119.547 E0.29256
G1 X101.250 Y119.861 E0.30239
G1 X98.750 Y119.861 E0.31223
G1 X96.265 Y119.546 E0.32208
G1 X93.851 Y118.926 E0.33189
G1 X91.527 Y118.006 E0.34172
G1 X89.337 Y116.802 E0.35156
G1 X87.315 Y115.333 E0.36139
G1 X85.494 Y113.622 E0.37122
G1 X83.901 Y111.697 E0.38105
G1 X82.562 Y109.587 E0.39089
G1 X81.498 Y107.326 E0.40072
G1 X80.727 Y104.955 E0.41053
G1 X80.257 Y102.494 E0.42038
G1 X80.100 Y100.000 E0.43021
G1 X80.257 Y97.506 E0.44005
G1 X80.725 Y95.051 E0.44988
G1 X81.498 Y92.674 E0.45971
G1 X82.562 Y90.413 E0.46954
G1 X83.901 Y88.303 E0.47938
G1 X85.490 Y86.382 E0.48918
G1 X85.919 Y85.979 E0.49150
G92 E0
G1 X103.019 Y90.182 F60.000
G1 X94.018 Y81.181 E0.08735 F60.000
G1 X93.667 Y81.297 E0.08988
G1 X102.391 Y90.021 E0.17454
G1 X101.799 Y89.896 E0.17869
G1 X93.333 Y81.429 E0.26085
G1 X92.998 Y81.562 E0.26331
G1 X101.265 Y89.829 E0.34353
G1 X100.731 Y89.761 E0.34723
G1 X92.664 Y81.694 E0.42551
G1 X92.329 Y81.826 E0.42797
G1 X100.262 Y89.759 E0.50495
G1 X99.796 Y89.759 E0.50816
G1 X91.995 Y81.959 E0.58385
G1 X91.661 Y82.091 E0.58632
G1 X99.339 Y89.770 E0.66083
G1 X98.925 Y89.822 E0.66370
G1 X91.349 Y82.246 E0.73721
G1 X91.048 Y82.412 E0.73957
G1 X98.510 Y89.875 E0.81198
G1 X98.100 Y89.931 E0.81482
G1 X90.746 Y82.578 E0.88618
G1 X90.445 Y82.743 E0.88854
G1 X97.728 Y90.026 E0.95921
G1 X97.357 Y90.122 E0.96184
G1 X90.144 Y82.909 E1.03183
G1 X89.843 Y83.074 E1.03419
G1 X96.985 Y90.217 E1.10350
G1 X96.640 Y90.339 E1.10601
G1 X89.542 Y83.240 E1.17489
G1 X89.256 Y83.421 E1.17721
G1 X96.306 Y90.471 E1.24562
G1 X95.972 Y90.603 E1.24809
G1 X88.985 Y83.617 E1.31588
G1 X88.715 Y83.814 E1.31818
G1 X95.641 Y90.739 E1.38538
G1 X95.339 Y90.905 E1.38774
G1 X88.445 Y84.010 E1.45464
G1 X88.174 Y84.207 E1.45693
G1 X95.038 Y91.070 E1.52353
G1 X94.737 Y91.236 E1.52589
G1 X87.904 Y84.403 E1.59220
G1 X87.634 Y84.600 E1.59449
G1 X94.446 Y91.412 E1.66059
G1 X94.175 Y91.608 E1.66288
G1 X87.366 Y84.799 E1.72896
G1 X87.126 Y85.025 E1.73122
G1 X93.905 Y91.805 E1.79700
G1 X93.635 Y92.001 E1.79930
G1 X86.885 Y85.251 E1.86479
G1 X86.645 Y85.478 E1.86706
G1 X93.378 Y92.211 E1.93239
G1 X93.137 Y92.437 E1.93466
G1 X86.404 Y85.704 E1.99999
G1 X86.163 Y85.930 E2.00226
G1 X92.896 Y92.663 E2.06759
G1 X92.655 Y92.889 E2.06986
G1 X85.927 Y86.160 E2.13515
G1 X85.693 Y86.393 E2.13741
G1 X92.430 Y93.130 E2.20278
G1 X92.218 Y93.386 E2.20506
G1 X85.460 Y86.627 E2.27064
G1 X85.248 Y86.882 E2.27292
G1 X92.007 Y93.641 E2.33851
G1 X91.796 Y93.896 E2.34078
G1 X85.036 Y87.137 E2.40637
G1 X84.825 Y87.393 E2.40865
G1 X91.603 Y94.170 E2.47441
G1 X91.421 Y94.456 E2.47673
G1 X84.614 Y87.648 E2.54279
G1 X84.402 Y87.903 E2.54507
G1 X91.240 Y94.741 E2.61142
G1 X91.059 Y95.027 E2.61374
G1 X84.191 Y88.159 E2.68038
G1 X83.985 Y88.420 E2.68266
G1 X90.902 Y95.337 E2.74979
G1 X90.753 Y95.654 E2.75219
G1 X83.804 Y88.705 E2.81963
G1 X83.623 Y88.991 E2.82195
G1 X90.604 Y95.972 E2.88969
G1 X90.457 Y96.292 E2.89210
G1 X83.441 Y89.276 E2.96017
G1 X83.260 Y89.562 E2.96249
G1 X90.342 Y96.644 E3.03121
G1 X90.228 Y96.996 E3.03376
G1 X83.079 Y89.848 E3.10312
G1 X82.898 Y90.133 E3.10544
G1 X90.113 Y97.349 E3.17546
G1 X90.021 Y97.723 E3.17811
G1 X82.716 Y90.419 E3.24899
G1 X82.563 Y90.732 E3.25138
G1 X89.946 Y98.115 E3.32303
G1 X89.872 Y98.507 E3.32577
G1 X82.414 Y91.050 E3.39813
G1 X82.264 Y91.367 E3.40054
G1 X89.812 Y98.914 E3.47378
G1 X89.784 Y99.354 E3.47680
G1 X82.115 Y91.684 E3.55122
G1 X81.966 Y92.002 E3.55362
G1 X89.757 Y99.793 E3.62922
G1 X89.751 Y100.254 E3.63239
G1 X81.816 Y92.319 E3.70938
G1 X81.667 Y92.637 E3.71178
G1 X89.782 Y100.752 E3.79053
G1 X89.813 Y101.250 E3.79396
G1 X81.547 Y92.983 E3.87417
G1 X81.432 Y93.336 E3.87671
G1 X89.905 Y101.809 E3.95893
G1 X90.015 Y102.386 E3.96296
G1 X81.318 Y93.688 E4.04736
G1 X81.203 Y94.040 E4.04990
G1 X90.190 Y103.027 E4.13710
G1 X90.414 Y103.718 E4.14209
G1 X81.089 Y94.393 E4.23258
G1 X80.974 Y94.745 E4.23513
G1 X90.787 Y104.557 E4.33034
G1 X91.378 Y105.615 F60.000
G1 X80.866 Y95.104 E4.43234 F60.000
G1 X80.792 Y95.496 E4.43508
G1 X104.496 Y119.200 E4.66510
G1 X104.868 Y119.105 E4.66773
G1 X94.440 Y108.678 E4.76891
G1 X95.477 Y109.248 F60.000
G1 X105.239 Y119.010 E4.86364 F60.000
G1 X105.611 Y118.914 E4.86627
G1 X96.264 Y109.568 E4.95697
G1 X96.981 Y109.818 F60.000
G1 X105.982 Y118.819 E5.04431 F60.000
G1 X106.333 Y118.703 E5.04685
G1 X97.609 Y109.979 E5.13151
G1 X98.201 Y110.104 E5.13566
G1 X106.667 Y118.571 E5.21782
G1 X107.002 Y118.438 E5.22028
G1 X98.735 Y110.171 E5.30050
G1 X99.269 Y110.239 E5.30420
G1 X107.336 Y118.306 E5.38248
G1 X107.671 Y118.174 E5.38495
G1 X99.737 Y110.241 E5.46193
G1 X100.204 Y110.241 E5.46513
G1 X108.005 Y118.041 E5.54082
G1 X108.339 Y117.909 E5.54329
G1 X100.661 Y110.230 E5.61780
G1 X101.075 Y110.178 E5.62067
G1 X108.651 Y117.754 E5.69418
G1 X108.952 Y117.588 E5.69654
G1 X101.490 Y110.125 E5.76895
G1 X101.900 Y110.069 E5.77180
G1 X109.253 Y117.422 E5.84315
G1 X109.555 Y117.257 E5.84551
G1 X102.272 Y109.974 E5.91618
G1 X102.643 Y109.878 E5.91881
G1 X109.856 Y117.091 E5.98880
G1 X110.157 Y116.926 E5.99116
G1 X103.014 Y109.783 E6.06047
G1 X103.360 Y109.661 E6.06298
G1 X110.458 Y116.760 E6.13187
G1 X110.744 Y116.579 E6.13419
G1 X103.694 Y109.529 E6.20260
G1 X104.028 Y109.397 E6.20507
G1 X111.014 Y116.383 E6.27286
G1 X111.285 Y116.186 E6.27515
G1 X104.359 Y109.261 E6.34235
G1 X104.661 Y109.095 E6.34471
G1 X111.555 Y115.990 E6.41161
G1 X111.826 Y115.793 E6.41391
G1 X104.962 Y108.930 E6.48051
G1 X105.263 Y108.764 E6.48287
G1 X112.096 Y115.597 E6.54917
G1 X112.366 Y115.401 E6.55146
G1 X105.554 Y108.588 E6.61757
G1 X105.824 Y108.392 E6.61986
G1 X112.633 Y115.201 E6.68593
G1 X112.874 Y114.975 E6.68820
G1 X106.095 Y108.196 E6.75398
G1 X106.365 Y107.999 E6.75627
G1 X113.115 Y114.749 E6.82177
G1 X113.356 Y114.523 E6.82403
G1 X106.622 Y107.789 E6.88937
G1 X106.863 Y107.563 E6.89164
G1 X113.596 Y114.297 E6.95697
G1 X113.837 Y114.071 E6.95924
G1 X107.104 Y107.337 E7.02458
G1 X107.345 Y107.111 E7.02684
G1 X114.074 Y113.840 E7.09214
G1 X114.307 Y113.607 E7.09440
G1 X107.570 Y106.870 E7.15978
G1 X107.781 Y106.615 E7.16205
G1 X114.541 Y113.374 E7.22764
G1 X114.752 Y113.118 E7.22991
G1 X107.993 Y106.359 E7.29551
G1 X108.204 Y106.104 E7.29778
G1 X114.964 Y112.863 E7.36337
G1 X115.175 Y112.608 E7.36565
G1 X108.397 Y105.830 E7.43141
G1 X108.579 Y105.544 E7.43373
G1 X115.386 Y112.352 E7.49979
G1 X115.598 Y112.097 E7.50207
G1 X108.760 Y105.259 E7.56842
G1 X108.941 Y104.973 E7.57074
G1 X115.809 Y111.841 E7.63738
G1 X116.015 Y111.580 E7.63966
G1 X109.098 Y104.663 E7.70678
G1 X109.247 Y104.346 E7.70919
G1 X116.196 Y111.295 E7.77662
G1 X116.377 Y111.009 E7.77894
G1 X109.397 Y104.028 E7.84668
G1 X109.543 Y103.709 E7.84909
G1 X116.559 Y110.724 E7.91717
G1 X116.740 Y110.438 E7.91949
G1 X109.658 Y103.356 E7.98821
G1 X109.772 Y103.004 E7.99075
G1 X116.921 Y110.152 E8.06012
G1 X117.102 Y109.867 E8.06244
G1 X109.887 Y102.652 E8.13245
G1 X109.979 Y102.277 E8.13510
G1 X117.283 Y109.581 E8.20598
G1 X117.437 Y109.268 E8.20838
G1 X110.054 Y101.885 E8.28002
G1 X110.128 Y101.493 E8.28276
G1 X117.586 Y108.950 E8.35513
G1 X117.736 Y108.633 E8.35753
G1 X110.188 Y101.086 E8.43077
G1 X110.216 Y100.647 E8.43379
G1 X117.885 Y108.316 E8.50821
G1 X118.034 Y107.998 E8.51061
G1 X110.243 Y100.207 E8.58621
G1 X110.249 Y99.746 E8.58938
G1 X118.184 Y107.681 E8.66637
G1 X118.333 Y107.363 E8.66877
G1 X110.218 Y99.248 E8.74752
G1 X110.187 Y98.750 E8.75094
G1 X118.453 Y107.017 E8.83116
G1 X118.568 Y106.664 E8.83370
G1 X110.095 Y98.191 E8.91592
G1 X109.985 Y97.615 E8.91995
G1 X118.682 Y106.312 E9.00435
G1 X118.797 Y105.960 E9.00689
G1 X109.810 Y96.974 E9.09409
G1 X109.586 Y96.282 E9.09908
G1 X118.911 Y105.608 E9.18957
G1 X119.026 Y105.255 E9.19211
G1 X109.214 Y95.443 E9.28732
G1 X108.623 Y94.385 F60.000
G1 X119.134 Y104.896 E9.38932 F60.000
G92 E0
G1 X118.021 Y92.114 F60.000
G1 X107.867 Y81.959 E0.09853 F60.000
G1 X107.094 Y81.653 F60.000
G1 X118.400 Y92.960 E0.20825 F60.000
G1 X118.625 Y93.651 E0.21324
G1 X106.321 Y81.347 E0.33263
G1 X105.634 Y81.128 E0.33757
G1 X118.850 Y94.343 E0.46581
G1 X119.074 Y95.034 E0.47080
G1 X105.006 Y80.966 E0.60731
G1 X104.378 Y80.805 E0.61176
G1 X119.208 Y95.635 E0.75566
G1 X119.318 Y96.212 E0.75969
G1 X103.750 Y80.644 E0.91076
G1 X103.196 Y80.556 E0.91461
G1 X119.428 Y96.789 E1.07212
G1 X119.538 Y97.366 E1.07615
G1 X102.662 Y80.489 E1.23991
G1 X102.127 Y80.421 E1.24361
G1 X119.602 Y97.896 E1.41318
G1 X119.634 Y98.394 E1.41661
G1 X101.593 Y80.354 E1.59167
G1 X101.073 Y80.300 E1.59525
G1 X119.665 Y98.893 E1.77566
G1 X119.696 Y99.391 E1.77909
G1 X100.606 Y80.300 E1.96433
G1 X100.139 Y80.300 E1.96754
G1 X119.728 Y99.889 E2.15762
G1 X119.722 Y100.349 E2.16078
G1 X99.672 Y80.300 E2.35533
G1 X99.205 Y80.300 E2.35854
G1 X119.694 Y100.789 E2.55735
G1 X119.666 Y101.228 E2.56037
G1 X98.738 Y80.300 E2.76345
G1 X98.319 Y80.347 E2.76634
G1 X119.639 Y101.667 E2.97322
G1 X119.611 Y102.106 E2.97624
G1 X97.904 Y80.400 E3.18687
G1 X97.490 Y80.452 E3.18974
G1 X119.582 Y102.544 E3.40411
G1 X119.507 Y102.936 E3.40685
G1 X97.076 Y80.504 E3.62451
G1 X96.661 Y80.557 E3.62738
G1 X119.432 Y103.328 E3.84834
G1 X119.358 Y103.720 E3.85108
G1 X96.247 Y80.609 E4.07534
G1 X95.875 Y80.704 E4.07797
G1 X119.283 Y104.112 E4.30511
G1 X119.208 Y104.504 E4.30785
G1 X95.504 Y80.800 E4.53787
G1 X95.132 Y80.895 E4.54050
G1 X105.559 Y91.322 E4.64168
G1 X104.523 Y90.752 F60.000
G1 X94.761 Y80.990 E4.73641 F60.000
G1 X94.389 Y81.086 E4.73904
G1 X103.736 Y90.432 E4.82973
G92 E0
G1 X108.754 Y82.380 F60.000
G1 X117.605 Y91.231 E0.08589 F60.000
G1 X117.082 Y90.242 F60.000
G1 X109.792 Y82.951 E0.15663 F60.000
G1 X111.058 Y83.751 F60.000
G1 X116.272 Y88.964 E0.20722 F60.000
G92 E0
G1 X114.544 Y86.769 F60.000
G1 X113.804 Y86.029 E0.00718 F60.000
G92 E0
G1 X104.125 Y119.296 F60.000
G1 X80.717 Y95.888 E0.22714 F60.000
G1 X80.642 Y96.280 E0.22988
G1 X103.753 Y119.391 E0.45414
G1 X103.339 Y119.443 E0.45701
G1 X80.567 Y96.672 E0.67797
G1 X80.492 Y97.064 E0.68071
G1 X102.924 Y119.496 E0.89838
G1 X102.510 Y119.548 E0.90125
G1 X80.418 Y97.456 E1.11562
G1 X80.389 Y97.894 E1.11863
G1 X102.095 Y119.600 E1.32926
G1 X101.681 Y119.653 E1.33213
G1 X80.361 Y98.333 E1.53901
G1 X80.334 Y98.772 E1.54203
G1 X101.262 Y119.700 E1.74510
G1 X100.795 Y119.700 E1.74831
G1 X80.306 Y99.212 E1.94712
G1 X80.278 Y99.651 E1.95014
G1 X100.328 Y119.700 E2.14469
G1 X99.861 Y119.700 E2.14790
G1 X80.272 Y100.111 E2.33798
G1 X80.304 Y100.609 E2.34141
G1 X99.394 Y119.700 E2.52666
G1 X98.928 Y119.700 E2.52986
G1 X80.335 Y101.108 E2.71027
G1 X80.366 Y101.606 E2.71370
G1 X98.407 Y119.646 E2.88876
G1 X97.872 Y119.578 E2.89245
G1 X80.398 Y102.104 E3.06202
G1 X80.462 Y102.635 E3.06569
G1 X97.338 Y119.511 E3.22944
G1 X96.803 Y119.443 E3.23314
G1 X80.572 Y103.212 E3.39064
G1 X80.682 Y103.789 E3.39467
G1 X96.249 Y119.356 E3.54573
G1 X95.621 Y119.195 E3.55018
G1 X80.793 Y104.366 E3.69407
G1 X80.926 Y104.966 E3.69829
G1 X94.993 Y119.034 E3.83480
G1 X94.365 Y118.872 E3.83925
G1 X81.150 Y105.657 E3.96748
G1 X81.375 Y106.349 E3.97247
G1 X93.679 Y118.652 E4.09186
G1 X92.906 Y118.346 F60.000
G1 X81.600 Y107.040 E4.20157 F60.000
G1 X81.979 Y107.886 F60.000
G1 X92.133 Y118.041 E4.30010 F60.000
G1 X91.246 Y117.620 F60.000
G1 X82.394 Y108.768 E4.38600 F60.000
G1 X82.918 Y109.759 F60.000
G1 X90.209 Y117.050 E4.45675 F60.000
G1 X88.941 Y116.249 F60.000
G1 X83.729 Y111.037 E4.50733 F60.000
G92 E0
G1 Z0.100 F60.000
G1 X92.637 Y93.086 F60.000
G1 X93.562 Y92.218 E0.00499 F60.000
G1 X94.588 Y91.472 E0.00998
G1 X95.766 Y90.825 E0.01527
G1 X96.879 Y90.394 E0.01997
G1 X98.107 Y90.079 E0.02495
G1 X99.366 Y89.920 E0.02995
G1 X100.634 Y89.920 E0.03494 F60.000
G1 X101.893 Y90.079 E0.03993
G1 X103.121 Y90.394 E0.04492
G1 X104.300 Y90.861 E0.04991
G1 X105.412 Y91.472 E0.05490
G1 X106.438 Y92.218 E0.05989
G1 X107.369 Y93.093 E0.06492
G1 X108.171 Y94.063 E0.06987
G1 X108.851 Y95.134 E0.07486
G1 X109.391 Y96.282 E0.07985
G1 X109.783 Y97.488 E0.08484
G1 X110.021 Y98.734 E0.08983
G1 X110.100 Y100.000 E0.09482
G1 X110.021 Y101.266 E0.09981
G1 X109.783 Y102.512 E0.10480
G1 X109.391 Y103.718 E0.10979
G1 X108.846 Y104.874 E0.11482
G1 X108.171 Y105.937 E0.11977
G1 X107.363 Y106.914 E0.12476
G1 X106.438 Y107.782 E0.12975
G1 X105.412 Y108.528 E0.13474
G1 X104.300 Y109.139 E0.13973
G1 X103.121 Y109.606 E0.14472
G1 X101.893 Y109.921 E0.14972
G1 X100.634 Y110.080 E0.15471
G1 X99.366 Y110.080 E0.15970
G1 X98.107 Y109.921 E0.16469
G1 X96.879 Y109.606 E0.16968
G1 X95.700 Y109.139 E0.17467
G1 X94.588 Y108.528 E0.17966
G1 X93.562 Y107.782 E0.18465
G1 X92.637 Y106.914 E0.18964
G1 X91.829 Y105.937 E0.19463
G1 X91.145 Y104.857 E0.19966
G1 X90.609 Y103.718 E0.20461
G1 X90.217 Y102.512 E0.20960
G1 X89.979 Y101.266 E0.21459
G1 X89.900 Y100.000 E0.21958
G1 X89.979 Y98.734 E0.22457
G1 X90.217 Y97.488 E0.22956
G1 X90.609 Y96.282 E0.23455
G1 X91.149 Y95.134 E0.23954
G1 X91.829 Y94.063 E0.24453
G1 X92.618 Y93.109 E0.24941
G92 E0
G1 X85.942 Y85.956 F60.000
G1 X87.315 Y84.667 E0.00741 F60.000
G1 X89.337 Y83.198 E0.01724
G1 X91.527 Y81.994 E0.02708
G1 X93.851 Y81.074 E0.03691
G1 X96.271 Y80.453 E0.04674
G1 X98.750 Y80.139 E0.05657
G1 X101.268 Y80.142 E0.06648
G1 X103.729 Y80.453 E0.07624 F60.000
